X:1
T:失われた民 ・ The Lost People
T:失われた民 ・ The Lost People
T:もののけ姫から ・ from Princess Mononoke
T:Composed by Joe Hisaishi Arranged by Kagami Covers 
T:All Rights Reserved.
T:All Rights Reserved.
T:All Rights Reserved.
T:All Rights Reserved.
T:All Rights Reserved.
C:Composed by Joe Hisaishi Arranged by Kagami Covers
Z:All Rights Reserved.
%%score { ( 1 3 ) | ( 2 4 ) }
L:1/8
Q:1/4=120
M:4/4
K:C
V:1 treble nm="Piano" snm="Pno."
V:3 treble 
V:2 bass 
V:4 bass 
V:1
!ppp!"^A" (D"_cresc."A) .A(A/c/) (5:4:5(B/c/B/A/G/) .A.F | (5:4:5(G/A/G/F/E/) .D.F (E/D/C) D2 | %2
 (DA) .A(A/c/) (5:4:5(d/e/d/c/B/) .c.A | (5:4:5(B/c/B/A/G/) .A.F (G/F/E) D2 | %4
 (Fc) .c(c/e/) (5:4:5(d/e/d/c/B/) .c.A | (5:4:5(B/c/B/A/G/) .F.A (G/F/E) F2 | %6
 (Fc) .c(c/e/) (5:4:5(f/g/f/e/d/) .e.c | (5:4:5(d/e/d/c/B/) .c.A (B/A/G A2) || %8
S!mf! (DA) .A(A/c/) (5:4:5(B/c/B/A/G/) .A.F | (5:4:5(G/A/G/F/E/) .D.F (E/D/C) D2 | %10
 (DA) .A(A/c/) (5:4:5(d/e/d/c/B/) .c.A | (5:4:5(B/c/B/A/G/) .A.F (G/F/E) D2 | %12
 (Fc) .c(c/e/) (5:4:5(d/e/d/c/B/) .c.A | (5:4:5(B/c/B/A/G/) .F.A (G/F/E) F2 | %14
 (Fc) .c(c/e/) (5:4:5(f/g/f/e/d/) .e.c | (5:4:5(d/e/d/c/B/) .c.A (B/A/G A2) || %16
"^only play first time\n                 (skip during Segno > Coda portion)\n"!8va(! (a'/g'/e'/d'/!8va)! a/g/e/d/ A/G/E/D/) x2 || %17
[K:F]"^B"!mp! (C3 D3 F2 | G3 F G2 A2 | [DEG]8- | ([DEG]4) A2 c2 | [Ad]4 c2 A2 | G4 F2 G2 | %23
 A4 F2 D2 | C8) | (C3 D3 F2 | G3 F G2 A2 | [DEG]8- | ([DEG]4) A2 c2 | [Ad]4 f2 e2 | d4 c2 d2 | %31
 A4 G2 A2 | c8) | (F3 G3 A2 | c3 d3 f2 | [ce]8- | ([ce]4) A2 c2 | d4 c2 A2 | G4 F2 D2!dacoda! | %39
 [A,F]8- | [A,F]8) ||!f!"^C" (g4 g2 a2 | f6 c2 | g4 g2 a2 | f8) | (_e4 c2 e2 | f6 g2 | a8- | a8) | %49
 (g4 g2 a2 | f6 c2 | g4 g2 a2 | f4) (f2 g2 | _a8 | b8 | c'8- | c'8)!D.S.! || %57
[K:F]O ((Fc) .c(c/e/) (5:4:5(f/g/f/e/d/) .e.c | (5:4:5(d/e/d/c/=B/) .c.A (B/A/G A2)) || %59
[K:C]"^D"!f! (DA) .A(A/c/) (5:4:5(B/c/B/A/G/) .A.F | (5:4:5(G/A/G/F/E/) .D.F (E/D/C) D2 | %61
 (DA) .A(A/c/) (5:4:5(d/e/d/c/B/) .c.A | (5:4:5(B/c/B/A/G/) .A.F (G/F/E) D2 | %63
 (Fc) .c(c/e/) (5:4:5(d/e/d/c/B/) .c.A | (5:4:5(B/c/B/A/G/) .F.A (G/F/E) F2 | %65
 (Fc) .c(c/e/) (5:4:5(f/g/f/e/d/) .e.c | (5:4:5(d/e/d/c/B/) .c.A (B/A/G A2) | %67
 (DA) .A(A/c/) (5:4:5(B/c/B/A/G/) .A.F | (5:4:5(G/A/G/F/E/) .D.F (E/D/C) D2 | %69
 (DA) .A(A/c/) (5:4:5(d/e/d/c/B/) .c.A | (5:4:5(B/c/B/A/G/) .A.F (G/F/E) D2 | %71
 (Fc) .c(c/e/) (5:4:5(d/e/d/c/B/) .c.A | (5:4:5(B/c/B/A/G/) .F.A (G/F/E) F2 | %73
 (Fc) .c(c/e/) (5:4:5(f/g/f/e/d/) .e.c | (5:4:5(d/e/d/c/B/) .c.A (B/A/G A2) || %75
"^E"!mf! ([Aa]2 [Gg]2 [Aa]2 [Dd]2- | [Dd]8) | ([Gg]2 [Ff]2 [Gg]2 [Cc]2- | [Cc]8) | %79
 ([Dd]2 [Ff]2 [Gg]2 [Aa]2 | [cc']4 [dd']4 | [Bb]4 [Aa]2 [Gg]2 | [Aa]8) |!f! (d/e/f- f6) | %84
 (e/f/g- g6) | (f/g/a- a6- | a8) | (a2 g2 a2 d2- | d4 g4 | e8- | e4 A4) || %91
[K:F]"^F" ([Aa]6 [Gg][Aa] | [Ff]6 [Ee][Ff] | [Gg]8 | ([Cc]4) [Ff]2 [Ee]2 | [Dd]2 [Cc]2 [Dd]4- | %96
 [Dd]4 [Ff]2 [Ee]2 | [Dd]2 [Cc]2 [Dd]4- | [Dd]8) | [Dd] A2 [Dd] A2 [Dd]A- | %100
 A[Dd] A2 [Dd]!>![Cc] z/ !>![Cc]3/2 | [Dd] A2 [Dd] A2 [Dd]A- | A[Dd] A2 [Dd] A2 [Dd] |: %103
[K:C]"^G"!mf! (DA) .A(A/c/) (5:4:5(B/c/B/A/G/) .A.F | (5:4:5(G/A/G/F/E/) .D.F (E/D/C) D2 | %105
 (DA) .A(A/c/) (5:4:5(d/e/d/c/B/) .c.A | (5:4:5(B/c/B/A/G/) .A.F (G/F/E) D2 | %107
 (Fc) .c(c/e/) (5:4:5(d/e/d/c/B/) .c.A | (5:4:5(B/c/B/A/G/) .F.A (G/F/E) F2 | %109
 (Fc) .c(c/e/) (5:4:5(f/g/f/e/d/) .e.c | (5:4:5(d/e/d/c/B/) .c.A ((B/A/G)) A2 :| %111
V:2
 z8 | z8 | z8 | z8 | z8 | z8 | z8 | z8 || [D,,A,,]8- | [D,,A,,]8- | [D,,A,,]8- | [D,,A,,]8 | %12
 [F,,C,]8- | [F,,C,]8- | [F,,C,]8- | [F,,C,]8 || x6 (A,/G,/E,/D,/) || %17
[K:F] [D,A,]3 [D,A,]4- [D,A,] | [D,A,]3 [D,A,]4- [D,A,] | [C,G,]3 [C,G,]4- [C,G,] | %20
 [C,G,]3 [C,G,]4- [C,G,] | [B,,F,]3 [B,,F,]4- [B,,F,] | [B,,F,]3 [B,,F,]4- [B,,F,] | %23
 [F,,C,]3 [F,,C,]4- [F,,C,] | [F,,C,]3 [F,,C,]4- [F,,C,] | [D,A,]3 [D,A,]4- [D,A,] | %26
 [D,A,]3 [D,A,]4- [D,A,] | [C,G,]3 [C,G,]4- [C,G,] | [C,G,]3 [C,G,]4- [C,G,] | %29
 [B,,F,]3 [B,,F,]4- [B,,F,] | [B,,F,]3 [B,,F,]4- [B,,F,] | [F,,C,]3 [F,,C,]4- [F,,C,] | %32
 [F,,C,]3 [F,,C,]4- [F,,C,] | [D,A,]3 [D,A,]4- [D,A,] | [D,A,]3 [D,A,]4- [D,A,] | %35
 [A,,A,]3 [A,,A,]4- [A,,A,] | [A,,A,]3 [A,,A,]4- [A,,A,] | [B,,F,]3 [B,,F,]4- [B,,F,] | %38
 [C,G,]3 [C,G,]4- [C,G,] | [F,,C,]3 [F,,C,]4- [F,,C,] | [F,,C,]3 [F,,C,]4- [F,,C,] || %41
 [B,,F,]3 [B,,F,]4- [B,,F,] | [B,,F,]3 [B,,F,]4- [B,,F,] | [A,,F,]3 [A,,F,]4- [A,,F,] | %44
 [A,,F,]3 [A,,F,]4- [A,,F,] | [G,,_E,]3 [G,,E,]4- [G,,E,] | [G,,_E,]3 [G,,E,]4- [G,,E,] | %47
 [F,,D,]3 [F,,D,]4- [F,,D,] | [F,,D,]3 [F,,D,]4- [F,,D,] | [B,,F,]3 [B,,F,]4- [B,,F,] | %50
 [B,,F,]3 [B,,F,]4- [B,,F,] | [A,,F,]3 [A,,F,]4- [A,,F,] | [A,,F,]3 [A,,F,]4- [A,,F,] | %53
 [C,_A,]3 [C,A,]4- [C,A,] | [C,_A,]3 [C,A,]4- [C,A,] | [D,B,]3 [D,B,]4- [D,B,] | %56
 [D,B,]3 [D,B,]4- [D,B,] ||[K:F] [F,,C,]3 [F,,C,]4- [F,,C,] | [F,,C,]3 [F,,C,]4- [F,,C,] || %59
[K:C] ([A,D]8 | [G,C]4 A,4 | [E,A,]8 | [D,G,]4 [E,A,]4) | (C,6 [A,,D,]2 | [C,F,]4 [D,G,]4 | %65
 [E,A,]4 [D,G,]2 [C,F,]2 | [C,D,]8) | (A,6 [A,D]2 | F,4 G,4 | [E,A,]4 [G,C]2 [D,G,]2 | %70
 [D,G,]4 [C,F,]4) | ([C,D,]4 [C,F,]2 [G,,C,]2 | [A,,D,]4 [C,F,]2 [D,G,]2 | [E,A,]6 [D,G,]2 | %74
 [E,A,]8) || [D,,A,,] z/ D,,/ z D,, D,, z/ D,,/ z D,, | %76
 [D,,A,,] z/ D,,/ z D,, D,, z/ D,,/ z [D,,A,,] | [D,,A,,] z/ A,,/ z A,, A,, z/ A,,/ z [D,,A,,] | %78
 [D,,A,,] z/ A,,/ z A,, A,, z/ A,,/ z [D,,A,,] | [D,,A,,] z/ D,,/ z D,, [D,,A,,] z/ D,,/ z D,, | %80
 [D,,A,,] z/ D,,/ z D,, D,, z/ D,,/ z [D,,A,,] | [D,,A,,] z/ D,,/ z D,, D,, z/ D,,/ z [D,,A,,] | %82
 [D,,A,,] z/ D,,/ z D,, D,, z/ D,,/ z D,, | A,8 | B,8 | C8- | C8 | A,8 | B,8 | C8- | C8 || %91
[K:F] [F,A,][F,A,] z [F,A,] [F,A,][F,A,] z [F,A,] | [F,A,][F,A,] z [F,A,] [F,A,][F,A,] z [F,A,] | %93
 [E,G,][E,G,] z [E,G,] [E,G,][E,G,] z [E,G,] | [E,G,][E,G,] z [E,G,] [E,G,][E,G,] z [E,G,] | %95
 [D,F,][D,F,] z [D,F,] [D,F,][D,F,] z [D,F,] | [D,F,][D,F,] z [D,F,] [E,G,][E,G,] z [E,G,] | %97
 [D,F,][D,F,] z [D,F,] [D,F,][D,F,] z [D,F,] | %98
 [D,F,][D,F,] z [D,F,]!<(! [E,G,][E,G,] z [E,G,]!<)! | [D,F,A,]8- | %100
 [D,F,A,]4 [D,F,A,]!>![C,E,G,] z/ !>![C,E,G,]3/2 | [D,F,A,]8- | [D,F,A,]8 |:[K:C] [D,,A,,]8- | %104
 [D,,A,,]8- | [D,,A,,]8- | [D,,A,,]8 | [F,,C,]8- | [F,,C,]8- | [F,,C,]8- | %110
"_Repeat & Fade Out" [F,,C,]8 :| %111
V:3
 x8 | x8 | x8 | x8 | x8 | x8 | x8 | x8 || x8 | x8 | x8 | x8 | x8 | x8 | x8 | x8 || %16
!8va(! x2!8va)! x6 ||[K:F] x8 | x8 | x8 | x8 | x8 | x8 | x8 | x8 | x8 | x8 | x8 | x8 | x8 | x8 | %31
 x8 | x8 | x8 | x8 | x8 | x8 | x8 | x8 | x8 | x8 || [Ad]8- | [Ad]8 | [Gc]8- | [Gc]8 | [FB]8- | %46
 [FB]8 | [A=e]8- | [Ae]8 | [Ad]8- | [Ad]8 | [Gc]8- | [Gc]8 | [B_e]8- | [Be]8 | [cf]8- | [cf]8 || %57
[K:F] x8 | x8 ||[K:C] x8 | x8 | x8 | x8 | x8 | x8 | x8 | x8 | x8 | x8 | x8 | x8 | x8 | x8 | x8 | %74
 x8 || x8 | x8 | x8 | x8 | x8 | x8 | x8 | x8 | F8 | G8 | A8- | A8 | F8 | G8 | A8- | A4 x4 || %91
[K:F] x8 | x8 | x8 | x8 | x8 | x8 | x8 | x8 | x8 | x8 | x8 | x8 |:[K:C] x8 | x8 | x8 | x8 | x8 | %108
 x8 | x8 | x8 :| %111
V:4
 x8 | x8 | x8 | x8 | x8 | x8 | x8 | x8 || x8 | x8 | x8 | x8 | x8 | x8 | x8 | x8 || x8 ||[K:F] x8 | %18
 x8 | x8 | x8 | x8 | x8 | x8 | x8 | x8 | x8 | x8 | x8 | x8 | x8 | x8 | x8 | x8 | x8 | x8 | x8 | %37
 x8 | x8 | x8 | x8 || x8 | x8 | x8 | x8 | x8 | x8 | x8 | x8 | x8 | x8 | x8 | x8 | x8 | x8 | x8 | %56
 x8 ||[K:F] x8 | x8 ||[K:C] D,8 | D,8- | D,8 | x8 | F,,8- | F,,8- | F,,8- | F,,8 | D,8- | D,8- | %69
 D,8 | x8 | F,,8- | F,,8- | F,,8- | F,,8 || x8 | x8 | x8 | x8 | x8 | x8 | x8 | x8 | %83
 D,D, z D, D,D, z D, | D,D, z D, D,D, z D, | D,D, z D, D,D, z D, | D,D, z D, D,D, z D, | %87
 D,D, z D, D,D, z D, | D,D, z D, D,D, z D, | D,D, z D, D,D, z D, | D,D, z D, D,D, z D, || %91
[K:F] B,,8- | B,,8 | A,,8- | A,,8 | G,,8- | G,,4 A,,4 | B,,8- | B,,4 C,4 | x8 | x8 | x8 | x8 |: %103
[K:C] x8 | x8 | x8 | x8 | x8 | x8 | x8 | x8 :| %111

